X: 032
M: C|
L: 1/8
K: F
V: 1
(A/B/c) cf (a/g/f/e/ f)d | cAdA BGGB |\
(A/B/c) cf (a/g/f/e/ f)d | cABG F/F/F F :|
|: c |\
(A/B/c) Fc dBfd | cAaf gGGc |\
(A/B/c) Fc dBfd | cABG F/F/F F :|
V: 2 clef=bass middle=d
z |\
f2f2 f2f2 | f2f2 g2g2 |\
f2f2 f2f2 | c2c2 F2F :|
|: z |\
f2f2 f2f2 | f2f2 g2g2 |\
f2f2 f2f2 | c2c2 F2F :|

